!!!OTL: Die Mordeltern Es waren mal zwei Bauernsoehn,
!!!ARE: Europa, Osteuropa, UdSSR, Rossiya, Wolga
!!!YOR: 4, S. 308
!!    1935 gedruckt
!!!SCT: Q0085Q
!!!YEM: Copyright 1995, estate of Helmut Schaffrath.
**kern
*ICvox
*Ivox
!! Irregular meter.
*MX
*k[f#c#]
*D:
{8e
8f#
8e
=1
4.d
8e
8f#
8g
=2
4.a}
{8d
8g
8a
=3
4b
4b
8a
8b
8a
8a
=4
2d
4r}
{4a
=5
8b
8a
8g
8f#
=6
8e
8f#
4d}
{4a
=7
8b
8a
8g
8f#
=8
8e
8f#
4d}
==
!!!AGN: Ballade, Habgier, Mord, Reue, Selbstmord
!!!ONB: ESAC (Essen Associative Code) Database: BALLADE
!!!AMT: irregular
!!!AIN: vox
!!!EED: Helmut Schaffrath
!!!EEV: 1.0
*-
